svg/fluentui-system-icons/ic_fluent_person_link_24_filled.svg

<svg width="24" height="24" viewBox="0 0 24 24" fill="none" xmlns="http://www.w3.org/2000/svg">
<path d="M16.7545 13.9992C17.5348 13.9992 18.2223 14.3966 18.6256 15H15.7539C13.1306 15 11.0039 17.1266 11.0039 19.75C11.0039 20.5602 11.2067 21.3229 11.5644 21.9903C11.3792 21.997 11.1912 22.0004 11.0004 22.0004C7.5794 22.0004 5.05643 20.9282 3.51427 18.7639C3.18231 18.298 3.00391 17.7401 3.00391 17.1681V16.2481C3.00391 15.0061 4.01076 13.9992 5.25278 13.9992H16.7545ZM11.0004 2.00391C13.7618 2.00391 16.0004 4.24248 16.0004 7.00391C16.0004 9.76533 13.7618 12.0039 11.0004 12.0039C8.23894 12.0039 6.00036 9.76533 6.00036 7.00391C6.00036 4.24248 8.23894 2.00391 11.0004 2.00391ZM23 19.75C23 17.6789 21.3211 16 19.25 16L19.1482 16.0068C18.7822 16.0565 18.5 16.3703 18.5 16.75C18.5 17.1642 18.8358 17.5 19.25 17.5L19.404 17.5052C20.5748 17.5844 21.5 18.5591 21.5 19.75C21.5 20.9926 20.4926 22 19.25 22L19.2466 22.0046L19.1448 22.0119C18.779 22.0633 18.4983 22.3783 18.5 22.758C18.5019 23.1722 18.8392 23.5065 19.2534 23.5046V23.5L19.4523 23.4948C21.4276 23.3913 23 21.7543 23 19.75ZM16.5 16.75C16.5 16.3358 16.1642 16 15.75 16L15.5508 16.0052C13.5724 16.1087 12 17.7457 12 19.75C12 21.8211 13.6789 23.5 15.75 23.5L15.8518 23.4932C16.2178 23.4435 16.5 23.1297 16.5 22.75C16.5 22.3358 16.1642 22 15.75 22L15.596 21.9948C14.4252 21.9156 13.5 20.9409 13.5 19.75C13.5 18.5074 14.5074 17.5 15.75 17.5L15.8518 17.4932C16.2178 17.4435 16.5 17.1297 16.5 16.75ZM20 19.75C20 19.3358 19.6642 19 19.25 19H15.75L15.6482 19.0068C15.2822 19.0565 15 19.3703 15 19.75C15 20.1642 15.3358 20.5 15.75 20.5H19.25L19.3518 20.4932C19.7178 20.4435 20 20.1297 20 19.75Z" fill="#212121"/>
</svg>

<svg xmlns="http://www.w3.org/2000/svg" width="24" height="24"><path d="M16.755 14c.78 0 1.467.397 1.87 1h-2.871a4.75 4.75 0 0 0-4.19 6.99A15.6 15.6 0 0 1 11 22c-3.42 0-5.944-1.072-7.486-3.236a2.75 2.75 0 0 1-.51-1.596v-.92A2.249 2.249 0 0 1 5.253 14h11.502ZM11 2.003a5 5 0 1 1 0 10 5 5 0 0 1 0-10ZM23 19.75A3.75 3.75 0 0 0 19.25 16l-.102.007a.75.75 0 0 0 .102 1.493l.154.005A2.25 2.25 0 0 1 19.25 22l-.003.005-.102.007a.75.75 0 0 0 .108 1.493V23.5l.2-.005A3.75 3.75 0 0 0 23 19.75Zm-6.5-3a.75.75 0 0 0-.75-.75l-.2.005a3.75 3.75 0 0 0 .2 7.495l.102-.007A.75.75 0 0 0 15.75 22l-.154-.005a2.25 2.25 0 0 1 .154-4.495l.102-.007a.75.75 0 0 0 .648-.743Zm3.5 3a.75.75 0 0 0-.75-.75h-3.5l-.102.007a.75.75 0 0 0 .102 1.493h3.5l.102-.007A.75.75 0 0 0 20 19.75Z"/></svg>
